src/public/images/third-main-block-second-section-background-tablet.svg

<svg width="724" height="243" viewBox="0 0 724 243" fill="none" xmlns="http://www.w3.org/2000/svg">
<path opacity="0.8" d="M262.914 -16.1736C263.045 12.5216 238.505 38.7643 198.369 57.9337C158.272 77.0846 102.777 89.0833 41.3926 89.3632C-19.9915 89.6431 -75.5935 78.151 -115.864 59.3665C-156.173 40.5639 -180.951 14.546 -181.082 -14.1491C-181.213 -42.8442 -156.673 -69.087 -116.537 -88.2564C-76.4395 -107.407 -20.9447 -119.406 40.4394 -119.686C101.824 -119.966 157.425 -108.474 197.696 -89.6891C238.005 -70.8865 262.783 -44.8687 262.914 -16.1736Z" stroke="#575775"/>
<path opacity="0.8" d="M242.586 -29.1333C242.641 -17.1267 236.704 -5.61254 225.817 4.93619C214.93 15.4862 199.122 25.0375 179.531 33.0982C140.351 49.2185 86.1348 59.3372 26.1737 59.6106C-33.7874 59.884 -88.0938 50.2601 -127.419 34.4978C-147.083 26.6161 -162.977 17.2093 -173.96 6.75901C-184.942 -3.69001 -190.984 -15.1495 -191.039 -27.1561C-191.094 -39.1627 -185.157 -50.6769 -174.27 -61.2256C-163.382 -71.7756 -147.575 -81.3269 -127.984 -89.3876C-88.804 -105.508 -34.5876 -115.627 25.3735 -115.9C85.3345 -116.173 139.641 -106.55 178.966 -90.7872C198.63 -82.9055 214.524 -73.4987 225.507 -63.0484C236.49 -52.5994 242.531 -41.1399 242.586 -29.1333Z" stroke="#575775"/>
<path opacity="0.8" d="M225.463 -54.7694C225.518 -42.7554 219.813 -31.2404 209.358 -20.6959C198.901 -10.1495 183.718 -0.602553 164.9 7.45349C127.265 23.5647 75.1831 33.673 17.5791 33.9357C-40.0248 34.1983 -92.1967 24.5653 -129.977 8.79799C-148.868 0.91389 -164.137 -8.49419 -174.69 -18.9448C-185.24 -29.3935 -191.051 -40.856 -191.105 -52.87C-191.16 -64.884 -185.455 -76.399 -175 -86.9434C-164.543 -97.4899 -149.36 -107.037 -130.542 -115.093C-92.907 -131.204 -40.825 -141.312 16.7789 -141.575C74.3828 -141.838 126.555 -132.205 164.335 -116.437C183.226 -108.553 198.495 -99.1452 209.048 -88.6945C219.598 -78.2458 225.409 -66.7833 225.463 -54.7694Z" stroke="#575775"/>
<g opacity="0.4">
<mask id="path-4-inside-1_16_9739" fill="white">
<path d="M451.95 356C451.95 289.948 478.189 226.601 524.895 179.895C571.601 133.189 634.948 106.95 701 106.95C767.052 106.95 830.399 133.189 877.105 179.895C923.811 226.601 950.05 289.948 950.05 356L701 356L451.95 356Z"/>
</mask>
<path d="M451.95 356C451.95 289.948 478.189 226.601 524.895 179.895C571.601 133.189 634.948 106.95 701 106.95C767.052 106.95 830.399 133.189 877.105 179.895C923.811 226.601 950.05 289.948 950.05 356L701 356L451.95 356Z" stroke="#575775" stroke-width="4" mask="url(#path-4-inside-1_16_9739)"/>
</g>
<g opacity="0.4">
<mask id="path-5-inside-2_16_9739" fill="white">
<path d="M434 356C434 285.187 462.13 217.275 512.202 167.203C562.275 117.13 630.187 89 701 89C771.813 89 839.725 117.13 889.797 167.202C939.87 217.274 968 285.187 968 356L701 356L434 356Z"/>
</mask>
<path d="M434 356C434 285.187 462.13 217.275 512.202 167.203C562.275 117.13 630.187 89 701 89C771.813 89 839.725 117.13 889.797 167.202C939.87 217.274 968 285.187 968 356L701 356L434 356Z" stroke="#575775" stroke-width="4" mask="url(#path-5-inside-2_16_9739)"/>
</g>
<g opacity="0.4">
<mask id="path-6-inside-3_16_9739" fill="white">
<path d="M471.021 356C471.021 295.006 495.251 236.51 538.38 193.38C581.51 150.251 640.006 126.021 701 126.021C761.994 126.021 820.49 150.251 863.62 193.38C906.749 236.51 930.979 295.006 930.979 356L701 356L471.021 356Z"/>
</mask>
<path d="M471.021 356C471.021 295.006 495.251 236.51 538.38 193.38C581.51 150.251 640.006 126.021 701 126.021C761.994 126.021 820.49 150.251 863.62 193.38C906.749 236.51 930.979 295.006 930.979 356L701 356L471.021 356Z" stroke="#575775" stroke-width="4" mask="url(#path-6-inside-3_16_9739)"/>
</g>
<circle cx="422" cy="102" r="7" fill="#575775"/>
<circle cx="469" cy="24" r="11" fill="#575775"/>
<circle cx="478" cy="158" r="11" fill="#575775"/>
</svg>

<svg xmlns="http://www.w3.org/2000/svg" width="724" height="243" fill="none"><path stroke="#575775" d="M262.914-16.174c.131 28.696-24.409 54.938-64.545 74.108-40.097 19.15-95.592 31.15-156.976 31.43-61.385.28-116.987-11.213-157.257-29.998-40.309-18.802-65.087-44.82-65.218-73.515-.131-28.695 24.409-54.938 64.545-74.107 40.098-19.151 95.592-31.15 156.976-31.43 61.385-.28 116.986 11.212 157.257 29.997 40.309 18.802 65.087 44.82 65.218 73.515Z" opacity=".8"/><path stroke="#575775" d="M242.586-29.133c.055 12.006-5.882 23.52-16.769 34.07-10.887 10.55-26.695 20.1-46.286 28.161-39.18 16.12-93.396 26.24-153.357 26.513-59.961.273-114.268-9.35-153.593-25.113-19.664-7.882-35.558-17.289-46.541-27.739-10.982-10.449-17.024-21.909-17.079-33.915-.055-12.007 5.882-23.52 16.769-34.07 10.888-10.55 26.695-20.1 46.286-28.162 39.18-16.12 93.396-26.239 153.357-26.512 59.962-.273 114.268 9.35 153.593 25.113 19.664 7.882 35.558 17.288 46.541 27.739C236.49-52.6 242.531-41.14 242.586-29.133Z" opacity=".8"/><path stroke="#575775" d="M225.463-54.77c.055 12.015-5.65 23.53-16.105 34.074-10.457 10.547-25.64 20.093-44.458 28.15-37.635 16.11-89.717 26.219-147.32 26.482-57.605.262-109.777-9.37-147.557-25.138-18.891-7.884-34.16-17.292-44.713-27.743-10.55-10.448-16.361-21.911-16.415-33.925-.055-12.014 5.65-23.529 16.105-34.073 10.457-10.547 25.64-20.094 44.458-28.15 37.635-16.111 89.717-26.219 147.32-26.482 57.605-.263 109.777 9.37 147.557 25.138 18.891 7.884 34.16 17.292 44.713 27.742 10.55 10.45 16.361 21.912 16.415 33.926Z" opacity=".8"/><g opacity=".4"><mask id="a" fill="#fff"><path d="M451.95 356a249.05 249.05 0 1 1 498.1 0h-498.1Z"/></mask><path stroke="#575775" stroke-width="4" d="M451.95 356a249.05 249.05 0 1 1 498.1 0h-498.1Z" mask="url(#a)"/></g><g opacity=".4"><mask id="b" fill="#fff"><path d="M434 356A266.999 266.999 0 0 1 701 89a266.999 266.999 0 0 1 267 267H434Z"/></mask><path stroke="#575775" stroke-width="4" d="M434 356A266.999 266.999 0 0 1 701 89a266.999 266.999 0 0 1 267 267H434Z" mask="url(#b)"/></g><g opacity=".4"><mask id="c" fill="#fff"><path d="M471.021 356c0-60.994 24.23-119.49 67.359-162.62a229.983 229.983 0 0 1 325.24 0A229.983 229.983 0 0 1 930.979 356H471.021Z"/></mask><path stroke="#575775" stroke-width="4" d="M471.021 356c0-60.994 24.23-119.49 67.359-162.62a229.983 229.983 0 0 1 325.24 0A229.983 229.983 0 0 1 930.979 356H471.021Z" mask="url(#c)"/></g><circle cx="422" cy="102" r="7" fill="#575775"/><circle cx="469" cy="24" r="11" fill="#575775"/><circle cx="478" cy="158" r="11" fill="#575775"/></svg>
